static/images/logo_we_en.svg

<?xml version="1.0" encoding="UTF-8"?>
<svg xmlns="http://www.w3.org/2000/svg" xmlns:xlink="http://www.w3.org/1999/xlink" width="77pt" height="22pt" viewBox="0 0 77 22" version="1.1">
<g>
<path fill="#FFFFFF" d="
M24.18,17.332c0,-2.766,-0.281,-3.484,-1.422,-3.484c-1.141,0,-1.41,0.719,-1.41,3.484c0,2.766,0.27,3.484,1.41,3.484c1.141,0,1.422,-0.719,1.422,-3.484ZM20.059,17.332c0,-3.648,0.867,-4.57,2.699,-4.57c1.887,0,2.711,0.879,2.711,4.57c0,3.664,-0.867,4.57,-2.711,4.57c-1.871,0,-2.699,-0.867,-2.699,-4.57
M27.094,12.922h3.992v1.059h-2.742v2.699h2.199v1.047h-2.199v4.016h-1.25Z
M39.781,17.332c0,-3.297,0.719,-4.57,2.863,-4.57c0.648,0,1.234,0.16,1.516,0.324v1.152c-0.324,-0.176,-0.895,-0.352,-1.438,-0.352c-1.289,0,-1.652,0.582,-1.652,3.445c0,2.891,0.395,3.461,1.652,3.461c0.559,0,1.195,-0.191,1.52,-0.383v1.152c-0.281,0.164,-0.961,0.34,-1.574,0.34c-2.32,0.016,-2.887,-1.273,-2.887,-4.57
M45.668,21.742h1.246v-8.82h-1.246Z
M48.883,12.922h4.121v1.059h-2.875v2.699h2.32v1.047h-2.32v2.957h2.875v1.059h-4.121Z
M54.645,12.922h1.438l2.781,7.027c-0.094,-0.719,-0.176,-1.559,-0.176,-2.348v-4.68h1.195v8.82h-1.438l-2.809,-7.055c0.105,0.719,0.203,1.574,0.203,2.375v4.68h-1.195Z
M61.508,17.332c0,-3.297,0.719,-4.57,2.859,-4.57c0.652,0,1.234,0.16,1.523,0.324v1.152c-0.328,-0.176,-0.898,-0.352,-1.441,-0.352c-1.289,0,-1.656,0.582,-1.656,3.445c0,2.891,0.395,3.461,1.656,3.461c0.559,0,1.195,-0.191,1.52,-0.383v1.152c-0.285,0.164,-0.961,0.34,-1.57,0.34c-2.32,0.016,-2.891,-1.273,-2.891,-4.57
M67.395,12.922h4.121v1.059h-2.875v2.699h2.32v1.047h-2.32v2.957h2.875v1.059h-4.121Z
M20.383,0.48h3.984v1.059h-2.738v2.699h2.199v1.047h-2.199v4.016h-1.246Z
M26.238,6.246h1.941l-0.363,-1.465c-0.191,-0.73,-0.438,-1.859,-0.586,-2.836c-0.16,0.977,-0.422,2.105,-0.609,2.836ZM26.582,0.48h1.285l2.348,8.82h-1.301l-0.516,-1.996h-2.402l-0.504,1.996h-1.262l2.352,-8.82
M30.852,4.891c0,-3.297,0.719,-4.57,2.863,-4.57c0.648,0,1.234,0.16,1.516,0.324v1.152c-0.324,-0.176,-0.891,-0.352,-1.438,-0.352c-1.285,0,-1.652,0.582,-1.652,3.445c0,2.891,0.391,3.461,1.652,3.461c0.559,0,1.195,-0.191,1.523,-0.383v1.152c-0.285,0.164,-0.965,0.34,-1.578,0.34c-2.316,0.016,-2.887,-1.273,-2.887,-4.57
M36.527,6.641v-6.16h1.25v6.215c0,1.301,0.445,1.68,1.355,1.68c0.91,0,1.355,-0.379,1.355,-1.68v-6.215h1.25v6.16c0,2.008,-0.844,2.82,-2.605,2.82c-1.789,0,-2.605,-0.785,-2.605,-2.82
M43.633,0.48h1.25v7.762h2.738v1.059h-3.988Z
M47.188,0.48h5.059v1.059h-1.91v7.762h-1.25v-7.762h-1.898Z
M55.145,5.637l-2.414,-5.156h1.371l1.043,2.375c0.246,0.57,0.477,1.18,0.625,1.723c0.164,-0.543,0.406,-1.152,0.652,-1.723l1.043,-2.375h1.328l-2.398,5.156v3.664h-1.25Z
M37.145,13.832c0.551,-0.004,1.07,0.176,1.309,0.363v-1.121c-0.238,-0.148,-0.824,-0.312,-1.418,-0.312c-1.656,0,-2.566,0.941,-2.566,2.309c0,1.137,0.48,1.684,1.258,2.355l0.711,0.613c0.586,0.488,0.949,0.867,0.949,1.602c0,0.855,-0.566,1.195,-1.418,1.195c-0.645,0,-1.18,-0.176,-1.488,-0.391v1.145c0.273,0.156,0.836,0.316,1.602,0.316c1.648,-0.004,2.562,-0.945,2.562,-2.309c0.004,-1.137,-0.484,-1.684,-1.258,-2.355l-0.711,-0.613c-0.586,-0.504,-0.953,-0.867,-0.949,-1.598c0,-0.863,0.562,-1.199,1.418,-1.199
M75.102,13.832c0.555,-0.004,1.07,0.176,1.309,0.363v-1.121c-0.238,-0.148,-0.82,-0.312,-1.418,-0.312c-1.652,0,-2.566,0.941,-2.566,2.309c0,1.137,0.484,1.684,1.262,2.355l0.711,0.613c0.582,0.488,0.945,0.867,0.945,1.602c0,0.855,-0.562,1.195,-1.414,1.195c-0.645,0,-1.18,-0.176,-1.488,-0.391v1.145c0.27,0.156,0.836,0.316,1.598,0.316c1.652,-0.004,2.562,-0.945,2.566,-2.309c0,-1.137,-0.484,-1.684,-1.262,-2.355l-0.707,-0.613c-0.59,-0.504,-0.953,-0.867,-0.949,-1.598c0,-0.863,0.562,-1.199,1.414,-1.199
M2.789,21.742h10.59l-1.25,-1.246h-8.094Z
M9.895,13.645h6.234v-1.246h-6.234Z
M8.352,8.617l0.883,0.883l2.645,-2.645l-0.883,-0.883Z
M4.625,1.363l4.609,4.609l0.879,-0.883l-4.609,-4.609Z
M2.863,3.125l4.609,4.609l0.879,-0.883l-4.609,-4.609Z
M13.664,14.891c-1.16,1.863,-3.223,3.109,-5.582,3.109c-3.629,0,-6.574,-2.945,-6.574,-6.578c0,-2.152,1.043,-4.051,2.641,-5.25l-0.887,-0.887c-1.82,1.434,-3,3.641,-3,6.137c0,4.32,3.5,7.824,7.82,7.824c3.074,0,5.727,-1.777,7.008,-4.355Z
M10.219,14.891c-0.625,0.383,-1.352,0.613,-2.133,0.613c-2.258,0,-4.082,-1.824,-4.082,-4.082c0,-1.465,0.785,-2.727,1.949,-3.445l-0.906,-0.906c-1.379,0.961,-2.293,2.543,-2.293,4.352c0,2.945,2.387,5.332,5.328,5.332c1.613,0,3.043,-0.734,4.02,-1.863Z
"/>
</g>
</svg>

<?xml version="1.0" encoding="UTF-8"?>
<svg xmlns="http://www.w3.org/2000/svg" xmlns:xlink="http://www.w3.org/1999/xlink" width="77pt" height="22pt" viewBox="0 0 77 22" version="1.1">
<g id="surface1">
<path fill="#FFFFFF" d="M24.18,17.332C24.18,14.566,23.898,13.848,22.758,13.848C21.617,13.848,21.348,14.566,21.348,17.332C21.348,20.098,21.617,20.816,22.758,20.816C23.898,20.816,24.18,20.098,24.18,17.332Z M20.059,17.332C20.059,13.684,20.926,12.762,22.758,12.762C24.645,12.762,25.469,13.641,25.469,17.332C25.469,20.996,24.602,21.902,22.758,21.902C20.887,21.902,20.059,21.035,20.059,17.332"/>
<path fill="#FFFFFF" d="M27.094,12.922L31.086,12.922L31.086,13.98L28.344,13.98L28.344,16.68L30.543,16.68L30.543,17.727L28.344,17.727L28.344,21.742L27.094,21.742L27.094,12.922"/>
<path fill="#FFFFFF" d="M39.781,17.332C39.781,14.035,40.5,12.762,42.645,12.762C43.293,12.762,43.879,12.922,44.16,13.086L44.16,14.238C43.836,14.062,43.266,13.887,42.723,13.887C41.434,13.887,41.07,14.469,41.07,17.332C41.07,20.223,41.465,20.793,42.723,20.793C43.281,20.793,43.918,20.602,44.242,20.41L44.242,21.562C43.961,21.727,43.281,21.902,42.668,21.902C40.348,21.918,39.781,20.629,39.781,17.332"/>
<path fill="#FFFFFF" d="M45.668,21.742L46.914,21.742L46.914,12.922L45.668,12.922Z M45.668,21.742"/>
<path fill="#FFFFFF" d="M48.883,12.922L53.004,12.922L53.004,13.98L50.129,13.98L50.129,16.68L52.449,16.68L52.449,17.727L50.129,17.727L50.129,20.684L53.004,20.684L53.004,21.742L48.883,21.742L48.883,12.922"/>
<path fill="#FFFFFF" d="M54.645,12.922L56.082,12.922L58.863,19.949C58.77,19.23,58.688,18.391,58.688,17.602L58.688,12.922L59.883,12.922L59.883,21.742L58.445,21.742L55.637,14.688C55.742,15.406,55.84,16.262,55.84,17.062L55.84,21.742L54.645,21.742L54.645,12.922"/>
<path fill="#FFFFFF" d="M61.508,17.332C61.508,14.035,62.227,12.762,64.367,12.762C65.02,12.762,65.602,12.922,65.891,13.086L65.891,14.238C65.562,14.062,64.992,13.887,64.449,13.887C63.16,13.887,62.793,14.469,62.793,17.332C62.793,20.223,63.188,20.793,64.449,20.793C65.008,20.793,65.645,20.602,65.969,20.41L65.969,21.562C65.684,21.727,65.008,21.902,64.398,21.902C62.078,21.918,61.508,20.629,61.508,17.332"/>
<path fill="#FFFFFF" d="M67.395,12.922L71.516,12.922L71.516,13.98L68.641,13.98L68.641,16.68L70.961,16.68L70.961,17.727L68.641,17.727L68.641,20.684L71.516,20.684L71.516,21.742L67.395,21.742L67.395,12.922"/>
<path fill="#FFFFFF" d="M20.383,0.48L24.367,0.48L24.367,1.539L21.629,1.539L21.629,4.238L23.828,4.238L23.828,5.285L21.629,5.285L21.629,9.301L20.383,9.301L20.383,0.48"/>
<path fill="#FFFFFF" d="M26.238,6.246L28.18,6.246L27.816,4.781C27.625,4.051,27.379,2.922,27.23,1.945C27.07,2.922,26.809,4.051,26.621,4.781Z M26.582,0.48L27.867,0.48L30.215,9.301L28.914,9.301L28.398,7.305L25.996,7.305L25.492,9.301L24.23,9.301L26.582,0.48"/>
<path fill="#FFFFFF" d="M30.852,4.891C30.852,1.594,31.57,0.32,33.715,0.32C34.363,0.32,34.949,0.48,35.23,0.645L35.23,1.797C34.906,1.621,34.34,1.445,33.793,1.445C32.508,1.445,32.141,2.027,32.141,4.891C32.141,7.781,32.531,8.352,33.793,8.352C34.352,8.352,34.988,8.16,35.316,7.969L35.316,9.121C35.031,9.285,34.352,9.461,33.738,9.461C31.422,9.477,30.852,8.188,30.852,4.891"/>
<path fill="#FFFFFF" d="M36.527,6.641L36.527,0.48L37.777,0.48L37.777,6.695C37.777,7.996,38.223,8.375,39.133,8.375C40.043,8.375,40.488,7.996,40.488,6.695L40.488,0.48L41.738,0.48L41.738,6.641C41.738,8.648,40.895,9.461,39.133,9.461C37.344,9.461,36.527,8.676,36.527,6.641"/>
<path fill="#FFFFFF" d="M43.633,0.48L44.883,0.48L44.883,8.242L47.621,8.242L47.621,9.301L43.633,9.301L43.633,0.48"/>
<path fill="#FFFFFF" d="M47.188,0.48L52.246,0.48L52.246,1.539L50.336,1.539L50.336,9.301L49.086,9.301L49.086,1.539L47.188,1.539L47.188,0.48"/>
<path fill="#FFFFFF" d="M55.145,5.637L52.73,0.48L54.102,0.48L55.145,2.855C55.391,3.426,55.621,4.035,55.77,4.578C55.934,4.035,56.176,3.426,56.422,2.855L57.465,0.48L58.793,0.48L56.395,5.637L56.395,9.301L55.145,9.301L55.145,5.637"/>
<path fill="#FFFFFF" d="M37.145,13.832C37.695,13.828,38.215,14.008,38.453,14.195L38.453,13.074C38.215,12.926,37.629,12.762,37.035,12.762C35.379,12.762,34.469,13.703,34.469,15.07C34.469,16.207,34.949,16.754,35.727,17.426L36.438,18.039C37.023,18.527,37.387,18.906,37.387,19.641C37.387,20.496,36.82,20.836,35.969,20.836C35.324,20.836,34.789,20.66,34.48,20.445L34.48,21.59C34.754,21.746,35.316,21.906,36.082,21.906C37.73,21.902,38.645,20.961,38.645,19.598C38.648,18.461,38.16,17.914,37.387,17.242L36.676,16.629C36.09,16.125,35.723,15.762,35.727,15.031C35.727,14.168,36.289,13.832,37.145,13.832"/>
<path fill="#FFFFFF" d="M75.102,13.832C75.656,13.828,76.172,14.008,76.41,14.195L76.41,13.074C76.172,12.926,75.59,12.762,74.992,12.762C73.34,12.762,72.426,13.703,72.426,15.07C72.426,16.207,72.91,16.754,73.688,17.426L74.398,18.039C74.98,18.527,75.344,18.906,75.344,19.641C75.344,20.496,74.781,20.836,73.93,20.836C73.285,20.836,72.75,20.66,72.441,20.445L72.441,21.59C72.711,21.746,73.277,21.906,74.039,21.906C75.691,21.902,76.602,20.961,76.605,19.598C76.605,18.461,76.121,17.914,75.344,17.242L74.637,16.629C74.047,16.125,73.684,15.762,73.688,15.031C73.688,14.168,74.25,13.832,75.102,13.832"/>
<path fill="#FFFFFF" d="M2.789,21.742L13.379,21.742L12.129,20.496L4.035,20.496L2.789,21.742"/>
<path fill="#FFFFFF" d="M9.895,13.645L16.129,13.645L16.129,12.398L9.895,12.398Z M9.895,13.645"/>
<path fill="#FFFFFF" d="M8.352,8.617L9.234,9.5L11.879,6.855L10.996,5.973L8.352,8.617"/>
<path fill="#FFFFFF" d="M4.625,1.363L9.234,5.973L10.113,5.09L5.504,0.48L4.625,1.363"/>
<path fill="#FFFFFF" d="M2.863,3.125L7.473,7.734L8.352,6.852L3.742,2.242L2.863,3.125"/>
<path fill="#FFFFFF" d="M13.664,14.891C12.504,16.754,10.441,18,8.082,18C4.453,18,1.508,15.055,1.508,11.422C1.508,9.27,2.551,7.371,4.148,6.172L3.262,5.285C1.441,6.719,0.262,8.926,0.262,11.422C0.262,15.742,3.762,19.246,8.082,19.246C11.156,19.246,13.809,17.469,15.09,14.891L13.664,14.891"/>
<path fill="#FFFFFF" d="M10.219,14.891C9.594,15.273,8.867,15.504,8.086,15.504C5.828,15.504,4.004,13.68,4.004,11.422C4.004,9.957,4.789,8.695,5.953,7.977L5.047,7.07C3.668,8.031,2.754,9.613,2.754,11.422C2.754,14.367,5.141,16.754,8.082,16.754C9.695,16.754,11.125,16.02,12.102,14.891L10.219,14.891"/>
</g>
</svg>
